img/icons/Twitter.svg

<svg height="48" viewBox="0 0 48 48" width="48" xmlns="http://www.w3.org/2000/svg"><g fill="none"><path d="m0 24c0-13.2548346 10.7451654-24 24-24s24 10.7451654 24 24-10.7451654 24-24 24-24-10.7451654-24-24z" fill="#55acee"/><path d="m23.2812026 19.5075006.0503625.8304542-.8393752-.1016883c-3.0553257-.389805-5.7245388-1.7117524-7.9908518-3.9319462l-1.1079753-1.1016228-.2853875.8135061c-.6043502 1.8134407-.2182376 3.7285696 1.0408252 5.016621.6715001.7118178.5204126.813506-.6379251.389805-.4029001-.1355844-.7554377-.2372726-.7890128-.1864285-.1175124.1186363.2853876 1.6609083.6043502 2.2710379.4364751.8474021 1.3262128 1.6778563 2.2998881 2.1693496l.8225877.389805-.9736753.016948c-.9401002 0-.9736752.0169481-.8729502.372857.3357501 1.1016228 1.6619629 2.2710378 3.1392632 2.7794792l1.0408253.3559088-.9065252.5423375c-1.3430003.77961-2.9210257 1.2202591-4.499051 1.2541552-.7554377.0169481-1.3765754.0847402-1.3765754.1355844 0 .1694804 2.0480754 1.1185709 3.2399882 1.4914278 3.5757384 1.1016229 7.8229768.6270776 11.0126026-1.2541553 2.266313-1.3388954 4.5326261-3.9997383 5.5902388-6.5758409.5707751-1.3727915 1.1415503-3.881102 1.1415503-5.0844131 0-.77961.0503625-.8812983.9904627-1.8134408.5539876-.5423373 1.0744003-1.1355188 1.1751253-1.3049993.1678751-.3220128.1510875-.3220128-.7050752-.0338961-1.4269378.5084414-1.6283878.4406491-.9233127-.3220128.5204126-.5423374 1.1415502-1.5253239 1.1415502-1.8134407 0-.0508441-.2518125.0338961-.5372.1864285-.3021752.1694804-.9736753.4237011-1.4773004.5762335l-.9065252.2881167-.8225877-.5592854c-.4532626-.3050648-1.0911878-.6440257-1.4269379-.745714-.8561626-.2372726-2.165588-.2033765-2.9378131.0677922-2.098438.762662-3.4246508 2.728635-3.2735633 4.8810366z" fill="#fff"/></g></svg>

<?xml version="1.0" encoding="UTF-8"?>
<svg width="48px" height="48px" viewBox="0 0 48 48" version="1.1" xmlns="http://www.w3.org/2000/svg" xmlns:xlink="http://www.w3.org/1999/xlink">
    <!-- Generator: Sketch 50.2 (55047) - http://www.bohemiancoding.com/sketch -->
    <title>Twitter</title>
    <desc>Created with Sketch.</desc>
    <defs></defs>
    <g id="Twitter" stroke="none" stroke-width="1" fill="none" fill-rule="evenodd">
        <g fill-rule="nonzero">
            <path d="M0,24 C0,10.7451654 10.7451654,0 24,0 C37.2548346,0 48,10.7451654 48,24 C48,37.2548346 37.2548346,48 24,48 C10.7451654,48 0,37.2548346 0,24 Z" id="back" fill="#55ACEE"></path>
            <path d="M23.2812026,19.5075006 L23.3315651,20.3379548 L22.4921899,20.2362665 C19.4368642,19.8464615 16.7676511,18.5245141 14.5013381,16.3043203 L13.3933628,15.2026975 L13.1079753,16.0162036 C12.5036251,17.8296443 12.8897377,19.7447732 14.1488005,21.0328246 C14.8203006,21.7446424 14.6692131,21.8463306 13.5108754,21.4226296 C13.1079753,21.2870452 12.7554377,21.185357 12.7218626,21.2362011 C12.6043502,21.3548374 13.0072502,22.8971094 13.3262128,23.507239 C13.7626879,24.3546411 14.6524256,25.1850953 15.6261009,25.6765886 L16.4486886,26.0663936 L15.4750133,26.0833416 C14.5349131,26.0833416 14.5013381,26.1002897 14.6020631,26.4561986 C14.9378132,27.5578214 16.264026,28.7272364 17.7413263,29.2356778 L18.7821516,29.5915866 L17.8756264,30.1339241 C16.5326261,30.9135341 14.9546007,31.3541832 13.3765754,31.3880793 C12.6211377,31.4050274 12,31.4728195 12,31.5236637 C12,31.6931441 14.0480754,32.6422346 15.2399882,33.0150915 C18.8157266,34.1167144 23.062965,33.6421691 26.2525908,31.7609362 C28.5189038,30.4220408 30.7852169,27.7611979 31.8428296,25.1850953 C32.4136047,23.8123038 32.9843799,21.3039933 32.9843799,20.1006822 C32.9843799,19.3210722 33.0347424,19.2193839 33.9748426,18.2872414 C34.5288302,17.7449041 35.0492429,17.1517226 35.1499679,16.9822421 C35.317843,16.6602293 35.3010554,16.6602293 34.4448927,16.948346 C33.0179549,17.4567874 32.8165049,17.3889951 33.52158,16.6263332 C34.0419926,16.0839958 34.6631302,15.1010093 34.6631302,14.8128925 C34.6631302,14.7620484 34.4113177,14.8467886 34.1259302,14.999321 C33.823755,15.1688014 33.1522549,15.4230221 32.6486298,15.5755545 L31.7421046,15.8636712 L30.9195169,15.3043858 C30.4662543,14.999321 29.8283291,14.6603601 29.492579,14.5586718 C28.6364164,14.3213992 27.326991,14.3552953 26.5547659,14.626464 C24.4563279,15.389126 23.1301151,17.355099 23.2812026,19.5075006 Z" id="Shape" fill="#FFFFFF"></path>
        </g>
    </g>
</svg>
